X: 165
T: La Rose
%R: reel
B: Chas & Sam Thompson "Twenty Four Country Dances for the Year 1779", London 1779, p.83 #1
F: http://www.vwml.org/browse/browse-collections-dance-tune-books/browse-thompsons1779
Z: 2014 John Chambers <jc:trillian.mit.edu> (added dance description)
M: 2/4
L: 1/16
K: Bb
% - - - - - - - - - - - - - - - - - - - - - - - - - - - - -
|:\
BABc B2d2 | c3de2d2 | c2B2A2B2 | (cBAG) F2E2 |\
D2B2A2B2 | c3de2d2 | c2B2 F2A2 | B4 B,4 :|
|:\
(3F2D2B,2 (3G2E2C2 | (3F2D2B,2 (3G2E2C2 | F2B2A2B2 | (cBAG) F2E2 |\
D2B2E2c2 | F2d2G2e2 | d2cB F2A2 | B4 B,4 :|
|:\
g2EF G2E2 | f2DE F2D2 | C2cd (edcB) | (ABcA) F2E2 |\
D2fg f2D2 | E2g2C2e2 | d2cB F2A2 | B4 B,4 :|
% - - - - - - - - - - Dance description - - - - - - - - - -
%%begintext align
%%   Right hands across half round left hands back again .|.
%% the 1st & 2d Cu. change sides & back again :|. lead down
%% the middle up again & cast off .|: Allemand with your
%% right hand then with your Left :|: lead thro' the bottom
%% & cast up lead thro' the top and cast off .|:. Right
%% and Left at top :|:.
%%endtext

%%sep 1 1 500
%%sep 1 1 500
